X:50
M:12/8
L:1/8
K:G
| G2G G2A B2c d2B | G2G G2B A2B cBA | 
| ded d2c B2c d2B | ded d2B A2c B2A | 
ded d2c B2c d2B | A2e ede A2c B2G :|| 

